X:1
T:Title
%%score 1 2 3
L:1/8
M:3/2
K:C
V:1 treble nm="Part_1"
V:2 treble-8 nm="Part_2"
V:3 treble-8 nm="Part_3"
V:1
 C8 B,4 | C4 D8 | F6 G2 _E2 D2 | F4 z4 z4 | F4 G4 A4 | _B4 z2 B2 A2 G2 | F2 F4 G2 _E2 D2 | %7
 F4 z4 z4 | F6 D2 E2 F2 | G4 z2 F2 E4 | F6 E4 F2 | G6 F2 E2 D2 | C8 B,4 | C2 D4 C2 B,4 | C12 || %15
 C8 A,4 | B,2 D4 C2 B,4 | C4 z4 C2 D2 | E2 F4 E2 F2 D2 | C2 D2 B,2 C4 E2- | E2 D4 C2 B,4 | %21
 C4 z4 z4 | D6 E2 G4 | A8 _B4 | A6 G4 F2 | G6 F4 E2 | F4 z4 z4 | F6 E2 F2 G2 | A6 G4 F2 | %29
 G2 E2 F2 D2 E2 B,2 | C4 B,2 D4 C2 | B,4 C8 || C4 A,4 B,4 | C8 B,2 C2 | D6 F4 E2 | F2 G4 F2 E4 | %36
 F4 z4 z4 | F8 G4 | A8 G4 | F8 E2 F2 | G2 A4 F2 E4 | F4 z4 z4 | F6 G4 E2 | F6 E4 D2 | D6 C4 B,2 | %45
 C4 z4 C2 D2 | E2 F4 E2 F2 D2 | C2 C4 C2 B,4 | C12 || C6 A,2 B,4 | C2 D2 F2 E2 C2 D2 | %51
 F2 E2 D2 C4 B,2 | C4 z4 z4 | C4 D4 E4 | F8 G4 | A4 G4 F4 | E6 C4 D2 | E6 C2 D2 E2 | F2 G4 F2 E4 | %59
 F4 z4 z4 | F4 G4 A4 | G8 F4 | E8 D4 | C2 D2 E2 F4 E2 | D4 C2 D2 F2 E2 | C2 D2 E2 D2 C2 C2- | %66
 C2 B,2 C8 || C6 A,2 B,4 | C4 z4 C2 D2 | E2 F4 G2 A4 | G2 F2 G2 F4 E2 | F4 z4 z4 | F4 G4 A4 | %73
 G2 F2 E2 D4 C2 | D4 z4 E4 | F8 E2 D2 | C2 D4 C2 B,4 | C4 z4 z4 | C4 D4 E4 | F4 G4 A4 | %80
 G6 A2 G2 F2 | E2 G4 F2 E4 | F4 z4 z4 | F4 E4 D4 | C8 D4 | E2 D2 C2 C4 B,2 | C12 || C8 B,4 | %88
 C6 D4 B,2 | C4 z4 D2 E2 | F2 E2 D2 C4 B,2 | C4 z4 z4 | C2 D2 E2 F2 G2 A2 | F2 G4 F2 E4 | %94
 F4 z4 z4 | F8 G4 | A8 G4 | F8 E4 | D6 C2 C2 B,2 | D2 E2 F2 G4 F2 | G4 F2 E4 D2 | C6 D2 F2 E2 | %102
 C2 D4 C2 B,4 | C12 |] %104
V:2
 G8 F4 | G4 A8 | c6 d2 _B2 A2 | c4 z4 z4 | c4 d4 e4 | f4 z2 f2 e2 d2 | c2 c4 d2 _B2 A2 | c4 z4 z4 | %8
 c6 A2 B2 c2 | d4 z2 c2 B4 | c6 B4 c2 | d6 c2 B2 A2 | G8 F4 | G2 A4 G2 F4 | G12 || G8 E4 | %16
 F2 A4 G2 F4 | G4 z4 G2 A2 | B2 c4 B2 c2 A2 | G2 A2 F2 G4 B2- | B2 A4 G2 F4 | G4 z4 z4 | A6 B2 d4 | %23
 e8 f4 | e6 d4 c2 | d6 c4 B2 | c4 z4 z4 | c6 B2 c2 d2 | e6 d4 c2 | d2 B2 c2 A2 B2 F2 | %30
 G4 F2 A4 G2 | F4 G8 || G4 E4 F4 | G8 F2 G2 | A6 c4 B2 | c2 d4 c2 B4 | c4 z4 z4 | c8 d4 | e8 d4 | %39
 c8 B2 c2 | d2 e4 c2 B4 | c4 z4 z4 | c6 d4 B2 | c6 B4 A2 | A6 G4 F2 | G4 z4 G2 A2 | %46
 B2 c4 B2 c2 A2 | G2 G4 G2 F4 | G12 || G6 E2 F4 | G2 A2 c2 B2 G2 A2 | c2 B2 A2 G4 F2 | G4 z4 z4 | %53
 G4 A4 B4 | c8 d4 | e4 d4 c4 | B6 G4 A2 | B6 G2 A2 B2 | c2 d4 c2 B4 | c4 z4 z4 | c4 d4 e4 | d8 c4 | %62
 B8 A4 | G2 A2 B2 c4 B2 | A4 G2 A2 c2 B2 | G2 A2 B2 A2 G2 G2- | G2 F2 G8 || G6 E2 F4 | %68
 G4 z4 G2 A2 | B2 c4 d2 e4 | d2 c2 d2 c4 B2 | c4 z4 z4 | c4 d4 e4 | d2 c2 B2 A4 G2 | A4 z4 B4 | %75
 c8 B2 A2 | G2 A4 G2 F4 | G4 z4 z4 | G4 A4 B4 | c4 d4 e4 | d6 e2 d2 c2 | B2 d4 c2 B4 | c4 z4 z4 | %83
 c4 B4 A4 | G8 A4 | B2 A2 G2 G4 F2 | G12 || G8 F4 | G6 A4 F2 | G4 z4 A2 B2 | c2 B2 A2 G4 F2 | %91
 G4 z4 z4 | G2 A2 B2 c2 d2 e2 | c2 d4 c2 B4 | c4 z4 z4 | c8 d4 | e8 d4 | c8 B4 | A6 G2 G2 F2 | %99
 A2 B2 c2 d4 c2 | d4 c2 B4 A2 | G6 A2 c2 B2 | G2 A4 G2 F4 | G12 |] %104
V:3
 C8 D4 | C4 F8 | A2 _B4 A2 G4 | F12 | A4 B4 c4 | d8 c2 _B2 | A2 F4 _B2 G4 | F4 z4 z4 | F8 G2 A2 | %9
 _B8 A2 G2 | F4 G4 A4 | G4 A4 G2 F2 | E4 C4 D4 | C2 F4 E2 D4 | C12 || C12 | D2 F4 E2 D4 | %17
 C8 E2 F2 | G2 A4 G2 F4 | E2 D4 C2 D2 G2- | G2 D4 E2 D4 | C4 z4 z4 | F4 A4 B4 | c8 d4 | c4 B4 A4 | %25
 G4 A4 G4 | F4 z4 z4 | F6 G2 A2 B2 | c4 B4 A4 | G4 F4 E2 D2 | C4 D2 F4 C2 | D4 C8 || C8 D4 | %33
 C8 D2 E2 | F8 G4 | A2 _B4 A2 G4 | F4 z4 z4 | A8 B4 | c8 _B4 | A4 F4 G2 A2 | B2 c4 F2 G4 | %41
 F4 z4 z4 | A4 _B4 G4 | F4 G4 E4 | D4 E2 C2 D4 | C8 E2 F2 | G2 A4 G2 F4 | E2 C4 F2 D4 | C12 || %49
 C8 D4 | C2 F4 G2 C2 F2 | F2 G2 F2 C2 D4 | C4 z4 z4 | C2 E4 F2 G4 | F4 A4 _B4 | A4 _B4 A4 | %56
 G4 E4 F4 | E4 G2 C2 F2 G2 | A2 _B4 A2 G4 | F4 z4 z4 | A4 _B4 A4 | _B2 G4 A2 F4 | G8 F4 | %63
 C2 F2 G2 F4 G2 | D4 E2 F4 G2 | E2 D2 G2 F2 E2 C2 | D4 C8 || C8 D4 | C8 E2 F2 | G2 A2 G2 B2 c4 | %70
 G2 A2 _B2 A2 G4 | F4 z4 z4 | A4 _B4 A4 | _B2 A2 G2 D2 E4 | D8 G4 | F4 A4 G2 D2 | E2 D4 C2 D4 | %77
 C4 z4 z4 | C4 F4 G4 | F4 _B4 A4 | _B6 A2 B2 A2 | G2 _B4 A2 G4 | F4 z4 z4 | A4 G4 D4 | E4 C4 F4 | %85
 G2 F2 C2 E2 D4 | C12 || C8 D4 | E4 F4 D4 | C4 E4 F2 G2 | F2 D4 C2 D4 | C4 z4 z4 | %92
 E2 F2 G2 A2 _B2 A2- | A2 G4 A2 G4 | F4 z4 z4 | F4 A4 _B4 | A4 c4 G4 | A4 F4 G4 | D4 F4 E4 | %99
 D2 G2 A2 G2 A4 | G2 _B2 A2 G4 F2 | C4 z2 E2 F2 G2 | E2 F4 E2 D4 | C12 |] %104

